X:1737
T:Galop nantais
T:för trettonhelgen 2010
R:Galopp
S:Efter YouTube
O:Från Nantes i Frankrike, tillfälligt använd i Lund, Skåne
Z:ABC-transkribering av Åke Persson
L:1/8
K:A
[M:4/4][Q:1/4=92] fd d/c/d/e/ dc c>c | dB B/A/B/c/ BA A2 | fd d/c/d/e/ dc c>A | BB cc d3 |]
[M:6/8][Q:1/4=195] A |: (B3B) zB | (c3c) zc | d3 dcB |1 (c3c) zA :|2 (e3e) ze |]
[M:6/8][Q:1/4=195] |: ve(ucA) ve2ue | ve(ucA) ve2uA | B2B e2e |1 c3 A2e :|2 A6 |]
(:musicend:)
Uppteckningen transponerad till A-dur för att förbättra spelbarheten på fiol.
Förslag till stråkföring för att få till rytmen i tredje reprisen har även satts ut.

Första reprisen spelas lite ridmarsch-aktigt, lite tillbakahållet och med betoning på varje taktdel, andra reprisen med betoning på de stampade slagen 1-2-123, tredje reprisen framåt med galopprytm. Såsom i följande klipp som denna not är transkriberad från:

http://www.youtube.com/watch?v=F0h9oqoc7mg&feature=player_embedded

OBS: Eftersom denna FolkWiki är avsedd för nordisk folkmusik och denna låt är från Frankrike kommer denna transkribering att tas bort eller ersättas av annan melodi efter trettonhelgen den 5 jan 2010, då den är avsedd att användas. Alla som vill ha noten uppmanas att ladda hem den nu.
(:music:)
